papirus/16x16/apps/fbmessenger.svg

<svg height="16" viewBox="0 0 16 16" width="16" xmlns="http://www.w3.org/2000/svg"><path d="m8 0c-3.9017852 0-7.14713513 2.595404-7.85351562 6.0273438a8 7.5 0 0 0 -.18359375 1.5761718 8 7.5 0 0 0  3.03710937 5.8730464v2.523438l1.7773438-1.519531a8 7.5 0 0 0 3.1855468.623047 8 7.5 0 0 0  7.8554684-6.1074222c.117077-.505708.181641-1.0301616.181641-1.5683594 0-4.1026867-3.581722-7.4277344-8-7.4277344z" fill="#009eff"/><path d="m8 10l-1.5-2.5-4.4999998 2.5 4.9999998-5 2 2.5 5-2.5z" fill="#fff"/></svg>

<?xml version="1.0" encoding="UTF-8" standalone="no"?>
<svg
   xmlns:dc="http://purl.org/dc/elements/1.1/"
   xmlns:cc="http://creativecommons.org/ns#"
   xmlns:rdf="http://www.w3.org/1999/02/22-rdf-syntax-ns#"
   xmlns:svg="http://www.w3.org/2000/svg"
   xmlns="http://www.w3.org/2000/svg"
   xmlns:sodipodi="http://sodipodi.sourceforge.net/DTD/sodipodi-0.dtd"
   xmlns:inkscape="http://www.inkscape.org/namespaces/inkscape"
   height="16"
   width="16"
   version="1.1"
   viewBox="0 0 16 16"
   id="svg2"
   inkscape:version="0.91 r13725"
   sodipodi:docname="fbmessenger.svg">
  <metadata
     id="metadata51">
    <rdf:RDF>
      <cc:Work
         rdf:about="">
        <dc:format>image/svg+xml</dc:format>
        <dc:type
           rdf:resource="http://purl.org/dc/dcmitype/StillImage" />
        <dc:title></dc:title>
      </cc:Work>
    </rdf:RDF>
  </metadata>
  <sodipodi:namedview
     pagecolor="#ffffff"
     bordercolor="#666666"
     borderopacity="1"
     objecttolerance="10"
     gridtolerance="10"
     guidetolerance="10"
     inkscape:pageopacity="0"
     inkscape:pageshadow="2"
     inkscape:window-width="1600"
     inkscape:window-height="849"
     id="namedview49"
     showgrid="false"
     inkscape:zoom="1"
     inkscape:cx="11.561502"
     inkscape:cy="10.402861"
     inkscape:window-x="0"
     inkscape:window-y="30"
     inkscape:window-maximized="1"
     inkscape:current-layer="svg2">
    <inkscape:grid
       type="xygrid"
       id="grid4374" />
  </sodipodi:namedview>
  <defs
     id="defs4" />
  <path
     inkscape:connector-curvature="0"
     id="path37"
     d="M 8,0 C 4.0982148,0 0.85286487,2.595404 0.14648438,6.0273438 A 8,7.5 0 0 0 -0.03710937,7.6035156 8,7.5 0 0 0 3,13.476562 L 3,16 4.7773438,14.480469 A 8,7.5 0 0 0 7.9628906,15.103516 8,7.5 0 0 0 15.818359,8.9960938 C 15.935436,8.4903858 16,7.9659322 16,7.4277344 16,3.3250477 12.418278,0 8,0 Z"
     style="fill:#009eff;fill-opacity:1" />
  <path
     d="M 8,10 6.5,7.5 2.0000002,10 7,5 9,7.5 14,5 Z"
     id="path47"
     inkscape:connector-curvature="0"
     style="fill:#ffffff"
     sodipodi:nodetypes="ccccccc" />
</svg>
